teeny/outline/basket-plus.svg

<svg width="15" height="15" viewBox="0 0 15 15" fill="none" xmlns="http://www.w3.org/2000/svg">
<path d="M2.44898 14.398L2.89619 14.1743L2.89619 14.1743L2.44898 14.398ZM12.551 14.398L12.9982 14.6216L12.9982 14.6216L12.551 14.398ZM0.703196 6H14.2968V5H0.703196V6ZM14 5.7032V6.14196H15V5.7032H14ZM12.3859 14H2.61409V15H12.3859V14ZM1 6.14196V5.7032H0V6.14196H1ZM2.89619 14.1743C1.6492 11.6804 1 8.93031 1 6.14196H0C0 9.08555 0.685346 11.9887 2.00176 14.6216L2.89619 14.1743ZM2.61409 14C2.73356 14 2.84277 14.0675 2.89619 14.1743L2.00176 14.6216C2.11773 14.8535 2.35478 15 2.61409 15V14ZM12.1038 14.1743C12.1572 14.0675 12.2664 14 12.3859 14V15C12.6452 15 12.8823 14.8535 12.9982 14.6216L12.1038 14.1743ZM14 6.14196C14 8.93031 13.3508 11.6804 12.1038 14.1743L12.9982 14.6216C14.3147 11.9887 15 9.08555 15 6.14196H14ZM14.2968 6C14.1329 6 14 5.86712 14 5.7032H15C15 5.31483 14.6852 5 14.2968 5V6ZM0.703196 5C0.314831 5 0 5.31483 0 5.7032H1C1 5.86712 0.867117 6 0.703196 6V5ZM3.92875 5.75725L6.92875 0.757248L6.07125 0.242752L3.07125 5.24275L3.92875 5.75725ZM8.07125 0.757248L11.0713 5.75725L11.9287 5.24275L8.92875 0.242752L8.07125 0.757248ZM7 7V12H8V7H7ZM5 10H10V9H5V10Z" fill="black"/>
</svg>

<svg viewBox="0 0 15 15" xmlns="http://www.w3.org/2000/svg"><path d="M2.44 14.398l.44-.23v0l-.45.22Zm10.1 0l.44.22v0l-.45-.23ZM.69 6h13.59V5H.68v1Zm13.29-.3v.43h1v-.44h-1Zm-1.62 8.29H2.58v1h9.77v-1ZM.97 6.13v-.44h-1v.43h1Zm1.89 8.03C1.61 11.66.96 8.91.96 6.12h-1c0 2.94.68 5.84 2 8.47l.89-.45Zm-.29-.18c.11 0 .22.06.28.17l-.9.44c.11.23.35.37.61.37v-1Zm9.48.17c.05-.11.16-.18.28-.18v1c.25 0 .49-.15.61-.38l-.9-.45Zm1.89-8.04c0 2.78-.65 5.53-1.9 8.03l.89.44c1.31-2.64 2-5.54 2-8.48h-1Zm.29-.15c-.17 0-.3-.14-.3-.3h1c0-.39-.32-.71-.71-.71v1Zm-13.6-1c-.39 0-.71.31-.71.7h1c0 .16-.14.29-.3.29v-1Zm3.22.75l3-5.01 -.86-.52 -3 4.99 .85.51ZM7.99.7l3 5 .85-.52 -3-5 -.86.51ZM6.91 6.94v5h1v-5h-1Zm-2 3h5v-1h-5v1Z"/></svg>
